assets/icons/pc_specs/ram.svg

<svg width="32" height="32" viewBox="0 0 32 32" fill="none" xmlns="http://www.w3.org/2000/svg">
<g clip-path="url(#clip0)">
<path d="M31.7244 12.3998L30.3249 11.0003L30.499 10.8262C31.2317 10.0935 31.2319 8.90742 30.499 8.17465C29.5508 7.22647 25.9526 3.62827 24.3252 2.00087L24.7248 1.60128C25.0909 1.23524 25.0909 0.641652 24.7248 0.275551C24.3588 -0.0904873 23.7652 -0.0904873 23.3991 0.275551C22.3915 1.28311 1.30881 22.3658 0.275629 23.399C-0.316706 23.9913 0.110953 24.9993 0.93846 24.9993C1.17838 24.9993 1.4183 24.9077 1.60129 24.7247L2.00089 24.3251L8.17473 30.4989C8.90562 31.2298 10.0952 31.2299 10.8261 30.4989L11.0003 30.3247L12.3998 31.7242C12.5829 31.9073 12.8228 31.9988 13.0627 31.9988C13.8903 31.9988 14.3178 30.9908 13.7255 30.3986L12.326 28.999L14 27.325L15.3371 28.662C15.5201 28.845 15.76 28.9366 15.9999 28.9366C16.8275 28.9366 17.2551 27.9285 16.6627 27.3363L15.3257 25.9993L19.9996 21.3254L21.3365 22.6625C21.5196 22.8455 21.7595 22.9371 21.9994 22.9371C22.827 22.9371 23.2545 21.929 22.6622 21.3368L21.3252 19.9998L22.9993 18.3257L24.3363 19.6627C24.5193 19.8458 24.7593 19.9373 24.9991 19.9373C25.8267 19.9373 26.2543 18.9293 25.6619 18.337L24.325 17L25.999 15.3259L27.336 16.663C27.5191 16.846 27.759 16.9376 27.9988 16.9376C28.8265 16.9376 29.254 15.9295 28.6617 15.3373L27.3247 14.0003L28.9988 12.3262L30.3983 13.7257C30.5813 13.9088 30.8212 14.0003 31.0611 14.0003C31.8892 14.0001 32.3167 12.9921 31.7244 12.3998ZM24.9236 5.25072L22.2496 7.92473L20.3255 6.00067L22.9996 3.32666L24.9236 5.25072ZM14.5001 11.8261L16.4241 13.7502L13.7501 16.4242L11.8261 14.5001C12.7615 13.5647 13.5647 12.7614 14.5001 11.8261ZM3.32668 22.9996L6.00069 20.3255L7.92468 22.2496L5.25074 24.9236L3.32668 22.9996ZM6.57646 26.2493L9.9133 22.9124C10.2794 22.5464 10.2794 21.9528 9.9133 21.5867L7.32641 18.9998L10.5004 15.8258L13.0873 18.4127C13.4534 18.7789 14.0469 18.7788 14.413 18.4127L18.4127 14.413C18.7788 14.047 18.7788 13.4534 18.4127 13.0873L15.8258 10.5003L18.9998 7.32634L21.5867 9.91329C21.9528 10.2795 22.5463 10.2794 22.9124 9.91329L26.2493 6.57639L29.1733 9.50038L9.50045 29.1733L6.57646 26.2493Z" fill="#2B398F"/>
<path d="M31.7244 12.3998L30.3249 11.0003L30.499 10.8262C31.2317 10.0935 31.2319 8.90742 30.499 8.17465C29.5508 7.22647 25.9526 3.62827 24.3252 2.00087L24.7248 1.60128C25.0909 1.23524 25.0909 0.641652 24.7248 0.275551C24.3588 -0.0904873 23.7652 -0.0904873 23.3991 0.275551C22.3915 1.28311 1.30881 22.3658 0.275629 23.399C-0.316706 23.9913 0.110953 24.9993 0.93846 24.9993C1.17838 24.9993 1.4183 24.9077 1.60129 24.7247L2.00089 24.3251L8.17473 30.4989C8.90562 31.2298 10.0952 31.2299 10.8261 30.4989L11.0003 30.3247L12.3998 31.7242C12.5829 31.9073 12.8228 31.9988 13.0627 31.9988C13.8903 31.9988 14.3178 30.9908 13.7255 30.3986L12.326 28.999L14 27.325L15.3371 28.662C15.5201 28.845 15.76 28.9366 15.9999 28.9366C16.8275 28.9366 17.2551 27.9285 16.6627 27.3363L15.3257 25.9993L19.9996 21.3254L21.3365 22.6625C21.5196 22.8455 21.7595 22.9371 21.9994 22.9371C22.827 22.9371 23.2545 21.929 22.6622 21.3368L21.3252 19.9998L22.9993 18.3257L24.3363 19.6627C24.5193 19.8458 24.7593 19.9373 24.9991 19.9373C25.8267 19.9373 26.2543 18.9293 25.6619 18.337L24.325 17L25.999 15.3259L27.336 16.663C27.5191 16.846 27.759 16.9376 27.9988 16.9376C28.8265 16.9376 29.254 15.9295 28.6617 15.3373L27.3247 14.0003L28.9988 12.3262L30.3983 13.7257C30.5813 13.9088 30.8212 14.0003 31.0611 14.0003C31.8892 14.0001 32.3167 12.9921 31.7244 12.3998ZM24.9236 5.25072L22.2496 7.92473L20.3255 6.00067L22.9996 3.32666L24.9236 5.25072ZM14.5001 11.8261L16.4241 13.7502L13.7501 16.4242L11.8261 14.5001C12.7615 13.5647 13.5647 12.7614 14.5001 11.8261ZM3.32668 22.9996L6.00069 20.3255L7.92468 22.2496L5.25074 24.9236L3.32668 22.9996ZM6.57646 26.2493L9.9133 22.9124C10.2794 22.5464 10.2794 21.9528 9.9133 21.5867L7.32641 18.9998L10.5004 15.8258L13.0873 18.4127C13.4534 18.7789 14.0469 18.7788 14.413 18.4127L18.4127 14.413C18.7788 14.047 18.7788 13.4534 18.4127 13.0873L15.8258 10.5003L18.9998 7.32634L21.5867 9.91329C21.9528 10.2795 22.5463 10.2794 22.9124 9.91329L26.2493 6.57639L29.1733 9.50038L9.50045 29.1733L6.57646 26.2493Z" fill="#3749BB"/>
</g>
<defs>
<clipPath id="clip0">
<rect width="32" height="32" fill="white"/>
</clipPath>
</defs>
</svg>

<svg xmlns="http://www.w3.org/2000/svg" fill="none" viewBox="0 0 32 32"><g clip-path="url(#a)"><path fill="#2B398F" d="m31.7244 12.3998-1.3995-1.3995.1741-.1741c.7327-.7327.7329-1.9188 0-2.6516L24.3252 2.001l.3996-.3996c.3661-.366.3661-.9596 0-1.3257-.366-.366-.9596-.366-1.3257 0L.2756 23.399c-.5923.5923-.1646 1.6003.6629 1.6003a.9345.9345 0 0 0 .6628-.2746l.3996-.3996 6.1738 6.1738c.731.7309 1.9205.731 2.6514 0l.1742-.1742 1.3995 1.3995a.9345.9345 0 0 0 .6629.2746c.8276 0 1.2551-1.008.6628-1.6002L12.326 28.999 14 27.325l1.3371 1.337a.9345.9345 0 0 0 .6628.2746c.8276 0 1.2552-1.0081.6628-1.6003l-1.337-1.337 4.6739-4.6739 1.3369 1.3371a.935.935 0 0 0 .6629.2746c.8276 0 1.2551-1.0081.6628-1.6003l-1.337-1.337 1.6741-1.6741 1.337 1.337a.9343.9343 0 0 0 .6628.2746c.8276 0 1.2552-1.008.6628-1.6003L24.325 17l1.674-1.6741 1.337 1.3371a.9349.9349 0 0 0 .6628.2746c.8277 0 1.2552-1.0081.6629-1.6003l-1.337-1.337 1.6741-1.6741 1.3995 1.3995a.9341.9341 0 0 0 .6628.2746c.8281-.0002 1.2556-1.0082.6633-1.6005Zm-6.8008-7.149-2.674 2.674-1.9241-1.9241 2.6741-2.674 1.924 1.924ZM14.5001 11.826l1.924 1.9241-2.674 2.674-1.924-1.9241 2.674-2.674ZM3.3267 22.9996l2.674-2.6741 1.924 1.9241-2.674 2.674-1.924-1.924Zm3.2498 3.2497 3.3368-3.3369c.3661-.366.3661-.9596 0-1.3257l-2.5869-2.5869 3.174-3.174 2.5869 2.5869c.3661.3662.9596.3661 1.3257 0l3.9997-3.9997c.3661-.366.3661-.9596 0-1.3257l-2.5869-2.587 3.174-3.174 2.5869 2.587c.3661.3662.9596.3661 1.3257 0l3.3369-3.337 2.924 2.924-19.6729 19.673-2.924-2.924Z"/><path fill="#3749BB" d="m31.7244 12.3998-1.3995-1.3995.1741-.1741c.7327-.7327.7329-1.9188 0-2.6516L24.3252 2.001l.3996-.3996c.3661-.366.3661-.9596 0-1.3257-.366-.366-.9596-.366-1.3257 0L.2756 23.399c-.5923.5923-.1646 1.6003.6629 1.6003a.9345.9345 0 0 0 .6628-.2746l.3996-.3996 6.1738 6.1738c.731.7309 1.9205.731 2.6514 0l.1742-.1742 1.3995 1.3995a.9345.9345 0 0 0 .6629.2746c.8276 0 1.2551-1.008.6628-1.6002L12.326 28.999 14 27.325l1.3371 1.337a.9345.9345 0 0 0 .6628.2746c.8276 0 1.2552-1.0081.6628-1.6003l-1.337-1.337 4.6739-4.6739 1.3369 1.3371a.935.935 0 0 0 .6629.2746c.8276 0 1.2551-1.0081.6628-1.6003l-1.337-1.337 1.6741-1.6741 1.337 1.337a.9343.9343 0 0 0 .6628.2746c.8276 0 1.2552-1.008.6628-1.6003L24.325 17l1.674-1.6741 1.337 1.3371a.9349.9349 0 0 0 .6628.2746c.8277 0 1.2552-1.0081.6629-1.6003l-1.337-1.337 1.6741-1.6741 1.3995 1.3995a.9341.9341 0 0 0 .6628.2746c.8281-.0002 1.2556-1.0082.6633-1.6005Zm-6.8008-7.149-2.674 2.674-1.9241-1.9241 2.6741-2.674 1.924 1.924ZM14.5001 11.826l1.924 1.9241-2.674 2.674-1.924-1.9241 2.674-2.674ZM3.3267 22.9996l2.674-2.6741 1.924 1.9241-2.674 2.674-1.924-1.924Zm3.2498 3.2497 3.3368-3.3369c.3661-.366.3661-.9596 0-1.3257l-2.5869-2.5869 3.174-3.174 2.5869 2.5869c.3661.3662.9596.3661 1.3257 0l3.9997-3.9997c.3661-.366.3661-.9596 0-1.3257l-2.5869-2.587 3.174-3.174 2.5869 2.587c.3661.3662.9596.3661 1.3257 0l3.3369-3.337 2.924 2.924-19.6729 19.673-2.924-2.924Z"/></g><defs><clipPath id="a"><path fill="#fff" d="M0 0h32v32H0z"/></clipPath></defs></svg>
